outputs/icons/communication/headset_round.svg

<svg xmlns="http://www.w3.org/2000/svg" width="1200" height="1200" fill="none"><path fill="#000" d="M543.75 740.625V488.133c0-31.06-25.19-56.25-56.25-56.25h-84.375c-62.139 0-112.5 50.361-112.5 112.502v139.99c0 62.14 50.361 112.5 112.5 112.5H487.5c31.06 0 56.25-25.19 56.25-56.25M459.375 712.5h-56.25c-15.504 0-28.125-12.62-28.125-28.125v-139.99c0-15.505 12.621-28.125 28.125-28.125h56.25zM600 150c-251.051 0-441.949 208.881-450 450v28.125c0 15.54 12.586 28.125 28.125 28.125h28.125c15.539 0 28.125-12.585 28.125-28.125V600c0-201.603 164.022-365.625 365.625-365.625 201.605 0 365.625 164.022 365.625 365.625h-.21c.14 4.27.21 291.305.21 291.305 0 41.045-33.275 74.32-74.32 74.32H712.5c0-46.6-37.775-84.375-84.375-84.375h-56.25c-46.6 0-84.375 37.775-84.375 84.375S525.275 1050 571.875 1050h319.43C978.95 1050 1050 978.95 1050 891.305V600c-8.05-241.119-198.95-450-450-450m196.875 646.875c62.14 0 112.5-50.36 112.5-112.5v-139.99c0-62.141-50.36-112.502-112.5-112.502H712.5c-31.06 0-56.25 25.19-56.25 56.25v252.492c0 31.06 25.19 56.25 56.25 56.25zm-56.25-280.615h56.25c15.505 0 28.125 12.62 28.125 28.125v139.99c0 15.505-12.62 28.125-28.125 28.125h-56.25z"/></svg>

<svg width="1200" height="1200" viewBox="0 0 1200 1200" fill="none" xmlns="http://www.w3.org/2000/svg"><path d="M543.75 740.625V488.133C543.75 457.073 518.56 431.883 487.5 431.883H403.125C340.986 431.883 290.625 482.244 290.625 544.385V684.375C290.625 746.515 340.986 796.875 403.125 796.875H487.5C518.56 796.875 543.75 771.685 543.75 740.625ZM459.375 712.5H403.125C387.621 712.5 375 699.88 375 684.375V544.385C375 528.88 387.621 516.26 403.125 516.26H459.375V712.5ZM600 150C348.949 150 158.051 358.881 150 600V628.125C150 643.665 162.586 656.25 178.125 656.25H206.25C221.789 656.25 234.375 643.665 234.375 628.125V600C234.375 398.397 398.397 234.375 600 234.375C801.605 234.375 965.625 398.397 965.625 600H965.415C965.555 604.27 965.625 891.305 965.625 891.305C965.625 932.35 932.35 965.625 891.305 965.625H712.5C712.5 919.025 674.725 881.25 628.125 881.25H571.875C525.275 881.25 487.5 919.025 487.5 965.625C487.5 1012.225 525.275 1050 571.875 1050H891.305C978.95 1050 1050 978.95 1050 891.305V600C1041.95 358.881 851.05 150 600 150ZM796.875 796.875C859.015 796.875 909.375 746.515 909.375 684.375V544.385C909.375 482.244 859.015 431.883 796.875 431.883H712.5C681.44 431.883 656.25 457.073 656.25 488.133V740.625C656.25 771.685 681.44 796.875 712.5 796.875H796.875ZM740.625 516.26H796.875C812.38 516.26 825 528.88 825 544.385V684.375C825 699.88 812.38 712.5 796.875 712.5H740.625V516.26Z" fill="#1D1E23"/></svg>
